X: 113
T:Jota de Elviña
M:3/4
L:1/8
Q:200
C:Trad.
S:Rep. Fco. Paradela
R:Jota
K:C
CECE | GA GECE | GA GECE | GA GECE | D2 B,DB,D | FG FDB,D | FG FDB,D | G
A GFED |1 E2 :|2 C6-|
C2 EF G2 | A2 _B2 A2 | _B2 "~"G2 F2- | F2 _B2 A2 |
_B2 "~"G2 F2- | F2 G2 A2 | _B2 "~"A2 G2- | G6- | G2 CD E2 | F2 G2 A2 | _
B2 "~"G2 F2- | F2 _B2 A2 | _B2 "~"G2 F2- | 
F2 G2 A2 | _B2 "~"A2 G2- | G6- | G2 |: CD E2 | F2 GAGF | G2 {C}(3GAG C2-
 | C2 "~"E2 DE |F2 "~"D2 B,2|
D"F."c D4 | E2 {F}EDC2- | C6- | C"F."c :||

